!!!!SEGMENT: pl-wtm--r-33-n_noskowski-zygmunt--krakowiak-ludowy.krn
!!!cenid: 18xx:2276
!!!COM: Noskowski, Zygmunt
!!!COM-rismID: pe106604
!!!CDT: 1846/05/02-1909/07/23
!!!CNT: Polish
!!!OTL: Krakowiak ludowy
!!!PDT:
!!!AGN: Secular
!!!YEC: Copyright 2022 Narodowy Instytut Fryderyka Chopina (https://polishscores.org)
!!!YEM: License CC-BY-4.0 (https://creativecommons.org/licenses/by/4.0)
!!!SMS-siglum: PL-Wtm
!!!SMS-shelfmark: R 33/N
!!!SMS-shelfwork: W
!!!SMS-variant:
!!!SMS-altvar:
!!!NIFC-rismSourceID: 1001143200
!!!NIFC-rismChildID: 1001143200
!!!NIFC-islandoraID:
!!!URL-pdf-islandora:
!!!URL-scan:
!!!IIIF:
!!!ONB-nifc:
!!!OMD: Andantino
!!!AIN: 1 cbass 1 cello 1 clars 2 flt 1 viola 2 violn 1 vox
!!!key: b-
**kern	**dynam	**kern	**dynam	**kern	**text	**mod-text	**kern	**dynam	**kern	**dynam	**kern	**dynam	**kern	**dynam	**kern	**dynam	**kern	**dynam
*group4	*	*group4	*	*group3	*	*	*group2	*	*group2	*	*group2	*	*group1	*	*group1	*	*group1	*
*part9	*	*part8	*	*part7	*	*	*part6	*	*part5	*	*part4	*	*part3	*	*part2	*	*part1	*
*staff9	*	*staff8	*	*staff7	*	*	*staff6	*	*staff5	*	*staff4	*	*staff3	*	*staff2	*	*staff1	*
*Icbass	*	*Icello	*	*Ivox	*	*	*Iviola	*	*Ivioln	*	*Ivioln	*	*Iclars	*	*Iflt	*	*Iflt	*
*ICstr	*	*ICstr	*	*ICvox	*	*	*ICstr	*	*ICstr	*	*ICstr	*	*ICww	*	*ICww	*	*ICww	*
*I"Baſso	*	*I"Cello	*	*I"[Voce]	*	*	*I"Viola	*	*I"Violino 2do	*	*I"Violino Io	*	*I"2 Clarinetti in B	*	*I"	*	*I"2 Flauti	*
*mI"Contrabbasso	*	*mI"Violoncello	*	*mI"Voce	*	*	*mI"Viola	*	*mI"Violini II	*	*mI"Violini I	*	*mI"Clarinetti I, II in Bb	*	*mI"Flauto II	*	*mI"Flauto I	*
*I'cb	*	*I'vlc	*	*I'[V]	*	*	*I'vla	*	*I'vl II	*	*I'vl I	*	*I'cl in Bb	*	*I'fl II	*	*I'fl I	*
*I'cb	*	*I'vlc	*	*I'V	*	*	*I'vla	*	*I'vl II	*	*I'vl I	*	*I'cl in Bb	*	*I'fl II	*	*I'fl I	*
*clefF4	*	*clefF4	*	*clefG2	*	*	*clefC3	*	*clefG2	*	*clefG2	*	*clefG2	*	*clefG2	*	*clefG2	*
*ITrd0c0	*	*	*	*	*	*	*	*	*	*	*	*	*ITrd1c2	*	*	*	*	*
*k[b-e-a-d-g-]	*	*k[b-e-a-d-g-]	*	*k[b-e-a-d-g-]	*	*	*k[b-e-a-d-g-]	*	*k[b-e-a-d-g-]	*	*k[b-e-a-d-g-]	*	*k[b-e-a-d-g-]	*	*k[b-e-a-d-g-]	*	*k[b-e-a-d-g-]	*
*b-:	*	*b-:	*	*b-:	*	*	*b-:	*	*b-:	*	*b-:	*	*b-:	*	*b-:	*	*b-:	*
*M2/4	*	*M2/4	*	*M2/4	*	*	*M2/4	*	*M2/4	*	*M2/4	*	*M2/4	*	*M2/4	*	*M2/4	*
*>[A,A]	*	*>[A,A]	*	*>[A,A]	*	*	*>[A,A]	*	*>[A,A]	*	*>[A,A]	*	*>[A,A]	*	*>[A,A]	*	*>[A,A]	*
=1	=1	=1	=1	=1	=1	=1	=1	=1	=1	=1	=1	=1	=1	=1	=1	=1	=1	=1
*	*	*	*	*	*	*	*	*	*	*	*	*	*^	*	*	*	*	*
*>A	*	*>A	*	*>A	*	*	*>A	*	*>A	*	*>A	*	*>A	*>A	*	*>A	*	*>A	*
!!LO:TX:a:t=P:problem:all\right:global
!	!LO:DY:b:rj	!	!LO:DY:b:rj	!	!	!	!	!	!	!	!	!	!	!	!LO:DY:b:rj	!	!	!	!
2BB-/	p	2BB-/	p	2r	.	.	8r	.	8r	.	8r	.	2r	2F\	p	8r	.	8r	.
!	!	!	!	!	!	!	!	!LO:DY:b:rj	!	!LO:DY:b:rj	!	!LO:DY:b:rj	!	!	!	!	!LO:DY:b:rj	!	!LO:DY:b:rj
.	.	.	.	.	.	.	4B- 4F/	p	4d-/	p	4f 4B-/	p	.	.	.	(>16dd-\LL	p	(>16ff\LL	p
.	.	.	.	.	.	.	.	.	.	.	.	.	.	.	.	16b-\JJ	.	16gg-\JJ	.
.	.	.	.	.	.	.	.	.	.	.	.	.	.	.	.	16dd-\LL	.	16ff\LL	.
.	.	.	.	.	.	.	.	.	.	.	.	.	.	.	.	16b-\J	.	16aa-\J	.
.	.	.	.	.	.	.	8B- 8F/	.	8d-/	.	8f 8B-/	.	.	.	.	8dd-\J)	.	8ff\J)	.
=2	=2	=2	=2	=2	=2	=2	=2	=2	=2	=2	=2	=2	=2	=2	=2	=2	=2	=2	=2
*rep	*	*rep	*	*	*	*	*rep	*	*rep	*	*rep	*	*rep	*rep	*	*rep	*	*rep	*
2BB-/	.	2BB-/	.	2r	.	.	8r	.	8r	.	8r	.	2r	2F\	.	8r	.	8r	.
.	.	.	.	.	.	.	4B- 4F/	.	4d-/	.	4f 4B-/	.	.	.	.	(>16dd-\LL	.	(>16ff\LL	.
.	.	.	.	.	.	.	.	.	.	.	.	.	.	.	.	16b-\JJ	.	16gg-\JJ	.
.	.	.	.	.	.	.	.	.	.	.	.	.	.	.	.	16dd-\LL	.	16ff\LL	.
.	.	.	.	.	.	.	.	.	.	.	.	.	.	.	.	16b-\J	.	16aa-\J	.
.	.	.	.	.	.	.	8B- 8F/	.	8d-/	.	8f 8B-/	.	.	.	.	8dd-\J)	.	8ff\J)	.
*Xrep	*	*Xrep	*	*	*	*	*Xrep	*	*Xrep	*	*Xrep	*	*Xrep	*Xrep	*	*Xrep	*	*Xrep	*
=3	=3	=3	=3	=3	=3	=3	=3	=3	=3	=3	=3	=3	=3	=3	=3	=3	=3	=3	=3
*rep	*	*rep	*	*	*	*	*rep	*	*rep	*	*rep	*	*	*	*	*	*	*	*
!	!	!	!	!	!	!	!	!	!	!	!	!	!	!	!LO:MO:mod=!LO&colon;DY&colon;a	!	!	!	!
!	!	!	!	!	!	!	!	!	!	!	!	!	!	!	!LO:DY:a:rj	!	!	!	!
2BB-/	.	2BB-/	.	8.dd-\	La-	La-	8r	.	8r	.	8r	.	(>8.dd-/L	2F\	p	8r	.	8r	.
.	.	.	.	.	.	.	4B- 4F/	.	4d-/	.	4f 4B-/	.	.	.	.	(>16b-\LL	.	(>16ff\LL	.
.	.	.	.	16cc\	-ta	-ta	.	.	.	.	.	.	16cc/Jk	.	.	16cc\JJ	.	16aa-\JJ	.
.	.	.	.	8b-\	pta-	pta-	.	.	.	.	.	.	8b-/L	.	.	8dd-\)	.	8ff\)	.
.	.	.	.	8dd-\	-szek	-szek,	8B- 8F/	.	8d-/	.	8f 8B-/	.	8dd-/J	.	.	8r	.	8r	.
*Xrep	*	*Xrep	*	*	*	*	*Xrep	*	*Xrep	*	*Xrep	*	*	*	*	*	*	*	*
=4	=4	=4	=4	=4	=4	=4	=4	=4	=4	=4	=4	=4	=4	=4	=4	=4	=4	=4	=4
*rep	*	*rep	*	*	*	*	*	*	*	*	*	*	*	*rep	*	*	*	*	*
2BB-/	.	2BB-/	.	4cc\	la-	la-	8r	.	8r	.	8r	.	4cc/	2F\	.	8r	.	8r	.
.	.	.	.	.	.	.	4An 4F/	.	4e-/	.	4f 4An/	.	.	.	.	(>16an\LL	.	(>16ff\LL	.
.	.	.	.	.	.	.	.	.	.	.	.	.	.	.	.	16ee-\JJ	.	16aan\JJ	.
.	.	.	.	4an/	-ta	-ta,	.	.	.	.	.	.	4a/)	.	.	8cc\)	.	8ff\)	.
.	.	.	.	.	.	.	8A 8F/	.	8e-/	.	8f 8A/	.	.	.	.	8r	.	8r	.
*Xrep	*	*Xrep	*	*	*	*	*	*	*	*	*	*	*	*Xrep	*	*	*	*	*
=5	=5	=5	=5	=5	=5	=5	=5	=5	=5	=5	=5	=5	=5	=5	=5	=5	=5	=5	=5
*rep	*	*rep	*	*	*	*	*rep	*	*rep	*	*rep	*	*	*rep	*	*rep	*	*rep	*
2BB-/	.	2BB-/	.	8f/	Sam	sam	8r	.	8r	.	8r	.	(>8f/	2F\	.	8r	.	8r	.
.	.	.	.	8an/	nie	nie	4An 4F/	.	4e-/	.	8f 8An/	.	4a/)	.	.	(>16an\LL	.	(>16ff\LL	.
.	.	.	.	.	.	.	.	.	.	.	.	.	.	.	.	16ee-\JJ	.	16aan\JJ	.
.	.	.	.	8a/	wie	wie,	.	.	.	.	4f 4A/	.	.	.	.	8cc\)	.	8ff\)	.
.	.	.	.	8a/	gdzie	gdzie	8A 8F/	.	8e-/	.	.	.	(>8a/	.	.	8r	.	8r	.
*Xrep	*	*Xrep	*	*	*	*	*Xrep	*	*Xrep	*	*Xrep	*	*	*Xrep	*	*Xrep	*	*Xrep	*
=6	=6	=6	=6	=6	=6	=6	=6	=6	=6	=6	=6	=6	=6	=6	=6	=6	=6	=6	=6
*rep	*	*rep	*	*	*	*	*	*	*	*	*	*	*	*rep	*	*	*	*	*
2BB-/	.	2BB-/	.	(>8b-\	pad-	pad-	8r	.	8r	.	8r	.	2b-/)	2F\	.	8r	.	8r	.
.	.	.	.	4ff\)	.	.	4B- 4F/	.	4d-/	.	4f 4B-/	.	.	.	.	(>16b-\LL	.	(>16ff\LL	.
.	.	.	.	.	.	.	.	.	.	.	.	.	.	.	.	16dd-\JJ	.	16bb-\JJ	.
.	.	.	.	.	.	.	.	.	.	.	.	.	.	.	.	8b-\)	.	8ff\)	.
.	.	.	.	8ee-\	-nie	-nie.	8B- 8F/	.	8d-/	.	8f 8B-/	.	.	.	.	8r	.	8r	.
*Xrep	*	*Xrep	*	*	*	*	*	*	*	*	*	*	*	*Xrep	*	*	*	*	*
!!LO:LB:g=original
=7	=7	=7	=7	=7	=7	=7	=7	=7	=7	=7	=7	=7	=7	=7	=7	=7	=7	=7	=7
*	*	*	*	*	*	*	*rep	*	*rep	*	*rep	*	*	*	*	*	*	*rep	*
!	!	!	!	!LO:SIC:s=(y>16dd-\LL	!	!	!	!	!	!	!	!	!	!	!	!	!	!	!
2BB-/	.	2BB-/	.	(>16dd-\LL	Kie-	Kie-	8r	.	8r	.	8r	.	(<16dd-/LL	2F\	.	8r	.	8r	.
.	.	.	.	16ee-\JJ)	.	.	.	.	.	.	.	.	16ee-/	.	.	.	.	.	.
!	!	!	!	!LO:SIC:s=(y>16dd-\LL	!	!	!	!	!	!	!	!	!	!	!	!	!	!	!
.	.	.	.	(>16dd-\LL	-dy	-dy	4B- 4F/	.	4d-/	.	4f 4B-/	.	16dd-/	.	.	(>16b-\LL	.	(>16ff\LL	.
.	.	.	.	16cc\JJ)	.	.	.	.	.	.	.	.	16cc/JJ)	.	.	16cc\JJ	.	16bb-\JJ	.
!	!	!	!	!LO:SIC:s=(y>16b-\LL	!	!	!	!	!	!	!	!	!	!	!	!	!	!	!
.	.	.	.	(>16b-\LL	się	się	.	.	.	.	.	.	8b-/	.	.	8dd-\)	.	8ff\)	.
.	.	.	.	16an\JJ)	.	.	.	.	.	.	.	.	.	.	.	.	.	.	.
!	!	!	!	!LO:SIC:s=(y>16b-\LL	!	!	!	!	!	!	!	!	!	!	!	!	!	!	!
.	.	.	.	(>16b-\LL	kto	kto	8B- 8F/	.	8d-/	.	8f 8B-/	.	8r	.	.	8r	.	8r	.
.	.	.	.	16dd-\JJ)	.	.	.	.	.	.	.	.	.	.	.	.	.	.	.
*	*	*	*	*	*	*	*Xrep	*	*Xrep	*	*Xrep	*	*	*	*	*	*	*Xrep	*
=8	=8	=8	=8	=8	=8	=8	=8	=8	=8	=8	=8	=8	=8	=8	=8	=8	=8	=8	=8
*rep	*	*rep	*	*	*	*	*	*	*	*	*	*	*	*rep	*	*	*	*	*
2BB-/	.	2BB-/	.	(>8dd-\	ko-	ko-	8r	.	8r	.	8r	.	(>8dd-/	2F\	.	8r	.	8r	.
.	.	.	.	4cc\)	.	.	4An 4F/	.	4e-/	.	4f 4An/	.	4cc/	.	.	(>16an\LL	.	(>16ff\LL	.
.	.	.	.	.	.	.	.	.	.	.	.	.	.	.	.	16ee-\JJ	.	16aan\JJ	.
.	.	.	.	.	.	.	.	.	.	.	.	.	.	.	.	8cc\)	.	8ff\)	.
.	.	.	.	8an/	-cha	-cha,	8A 8F/	.	8e-/	.	8f 8A/	.	8a/	.	.	8r	.	8r	.
*Xrep	*	*Xrep	*	*	*	*	*	*	*	*	*	*	*	*Xrep	*	*	*	*	*
=9	=9	=9	=9	=9	=9	=9	=9	=9	=9	=9	=9	=9	=9	=9	=9	=9	=9	=9	=9
*rep	*	*rep	*	*	*	*	*rep	*	*rep	*	*rep	*	*	*	*	*rep	*	*rep	*
2BB-/	.	2BB-/	.	8f/	Wza-	wza-	8r	.	8r	.	8r	.	2f/)	2e-\	.	8r	.	8r	.
.	.	.	.	8ff\	-jem-	-jem-	4An 4F/	.	4e-/	.	4f 4An/	.	.	.	.	(>16an\LL	.	(>16ff\LL	.
.	.	.	.	.	.	.	.	.	.	.	.	.	.	.	.	16ee-\JJ	.	16aan\JJ	.
.	.	.	.	8.ff\	-no-	-no-	.	.	.	.	.	.	.	.	.	8cc\)	.	8ff\)	.
.	.	.	.	.	.	.	8A 8F/	.	8e-/	.	8f 8A/	.	.	.	.	8r	.	8r	.
.	.	.	.	16an/	-ści	-ści	.	.	.	.	.	.	.	.	.	.	.	.	.
*Xrep	*	*Xrep	*	*	*	*	*Xrep	*	*Xrep	*	*Xrep	*	*	*	*	*Xrep	*	*Xrep	*
*	*	*	*	*	*	*	*	*	*	*	*	*	*v	*v	*	*	*	*	*
=10	=10	=10	=10	=10	=10	=10	=10	=10	=10	=10	=10	=10	=10	=10	=10	=10	=10	=10
!	!	!	!	!LO:SIC:s=(y>16cc\LL	!	!	!	!	!	!	!	!	!	!	!	!	!	!
4BB-/	.	4BB-/	.	(>16cc\LL	prag-	prag-	8r	.	8r	.	8r	.	8r	.	8r	.	8r	.
.	.	.	.	16b-\JJ)	.	.	.	.	.	.	.	.	.	.	.	.	.	.
!	!	!	!	!	!	!	!	!	!	!	!	!	!LO:SIC:s=(>4b- &(y<4f/	!	!	!	!	!
.	.	.	.	4b-\	-nie	-nie.	4B- 4F/	.	(<4d-/	.	(>4f/	.	(>4b- &(<4f/	.	(>4dd-\	.	(>4ff\	.
4r	.	4r	.	.	.	.	.	.	.	.	.	.	.	.	.	.	.	.
!	!	!	!	!	!	!	!	!	!	!	!	!	!LO:S:s=1:note:problem=note-level slur	!	!	!	!	!
!	!	!	!	!	!	!	!	!	!	!	!	!	!LO:S:s=2:note:problem=note-level slur	!	!	!	!	!
.	.	.	.	8r	.	.	8B-/	.	8f/)	.	8b-\)	.	8dd-) 8b-\&)	.	8ff\)	.	8bb-\)	.
=11	=11	=11	=11	=11	=11	=11	=11	=11	=11	=11	=11	=11	=11	=11	=11	=11	=11	=11
!	!	!	!	!	!	!	!	!	!	!	!	!	!	!	!	!	!	!LO:DY:b:rj
4G-\	.	4G-\	.	8.dd-\	U-	U-	8r	.	8r	.	(>8.dd-\L	.	8r	.	8r	.	(>8.ddd-\L	p
.	.	.	.	.	.	.	4d-\	.	4g- 4B-/	.	.	.	[>4.g- (<4.d-/	.	[<4.b-/	.	.	.
.	.	.	.	16cc\	-pa-	-pa-	.	.	.	.	16cc\Jk	.	.	.	.	.	16ccc\Jk	.
4r	.	4r	.	8b-\	-da	-da	.	.	.	.	8b-\L	.	.	.	.	.	8bb-\L	.
.	.	.	.	8dd-\	pta-	pta-	8g- 8d-\	.	8b- 8g-\	.	8dd-\J)	.	.	.	.	.	8ddd-\J	.
=12	=12	=12	=12	=12	=12	=12	=12	=12	=12	=12	=12	=12	=12	=12	=12	=12	=12	=12
!	!	!	!	!LO:SIC:s=(y>4cc\	!	!	!	!	!	!	!	!	!	!	!	!	!	!
(>4E-\	.	(>4E-\	.	(>4cc\	-szy-	-szy-	8r	.	8r	.	4cc\	.	8g-] 8c/)	.	8b-/]	.	4ccc\	.
.	.	.	.	.	.	.	8c\	.	8b- 8g-/	.	.	.	8r	.	8r	.	.	.
4F\)	.	4F\)	.	4an/)	-na	-na	8r	.	8r	.	4an/	.	8c 8A/	.	8f/	.	4aan\)	.
.	.	.	.	.	.	.	8c\	.	8an 8f/	.	.	.	8r	.	8r	.	.	.
!!LO:PB:g=original
=13	=13	=13	=13	=13	=13	=13	=13	=13	=13	=13	=13	=13	=13	=13	=13	=13	=13	=13
*	*	*	*	*	*	*	*	*	*	*	*	*	*^	*	*	*	*	*
(<4D-/	.	(<4D-/	.	8f/	u-	u-	8r	.	8r	.	8r	.	(<8f/	4r	.	(>4ff\	.	(>8ff\	.
.	.	.	.	8an/	-pa-	-pa-	8c\	.	8f/	.	8an/	.	4a/)	.	.	.	.	4aan\)	.
4C/)	.	4C/)	.	8a/	-łem	-łem	8r	.	8r	.	8r	.	.	[<4f\	.	4ee-\	.	.	.
.	.	.	.	8a/	zmę-	zmę-	8e-\	.	8f/	.	8a/	.	(>8a/	.	.	.	.	(>8aa\	.
=14	=14	=14	=14	=14	=14	=14	=14	=14	=14	=14	=14	=14	=14	=14	=14	=14	=14	=14	=14
(<4BB-/	.	(<4BB-/	.	(>8b-\	-czo-	-czo-	8r	.	8r	.	8r	.	8b-/)	8f\]	.	8dd-\)	.	8bb-\	.
.	.	.	.	4ff\)	.	.	8d-\	.	8f/	.	8b-\	.	8r	8r	.	8r	.	4fff\	.
!	!	!	!	!	!	!	!	!	!	!	!	!	!LO:SIC:s=(y>4g- &(<4c/	!	!	!	!	!	!
4AA-X/)	.	4AA-X/)	.	.	.	.	8r	.	8r	.	8r	.	(>4g- &(<4c/	4ryy	.	(<4b-/	.	.	.
.	.	.	.	8ee-\	-na	-na,	8c\	.	8g-/	.	8b-\	.	.	.	.	.	.	8eee-\	.
*	*	*	*	*	*	*	*	*	*	*	*	*	*v	*v	*	*	*	*	*
=15	=15	=15	=15	=15	=15	=15	=15	=15	=15	=15	=15	=15	=15	=15	=15	=15	=15	=15
!	!	!	!	!	!	!	!	!	!	!	!	!	!LO:S:s=1:note:problem=note-level slur	!	!	!	!	!
!	!	!	!	!	!	!	!	!	!	!	!	!	!LO:S:s=2:note:problem=note-level slur	!	!	!	!	!
4D-\	.	4D-\	.	16dd-\LL	Nie	nie	8r	.	8r	.	8r	.	8f) 8d-/&)	.	8a-/)	.	8.ddd-\L	.
.	.	.	.	16ee-\JJ	.	.	.	.	.	.	.	.	.	.	.	.	.	.
.	.	.	.	16dd-\LL	wy-	wy-	8d-\	.	8f/	.	8a-/	.	8r	.	8r	.	.	.
.	.	.	.	16cc\JJ	.	.	.	.	.	.	.	.	.	.	.	.	16ccc\Jk	.
(<4GG-/	.	(<4GG-/	.	16b-/LL	-trzy-	-trzy-	8r	.	8r	.	8r	.	4r	.	4r	.	4bb-\)	.
.	.	.	.	16an/JJ	.	.	.	.	.	.	.	.	.	.	.	.	.	.
!	!	!	!	!LO:SIC:s=(y>16b-\LL	!	!	!	!	!	!	!	!	!	!	!	!	!	!
.	.	.	.	(>16b-\LL	-mam	-mam,	8c\	.	8g-/	.	8b-\	.	.	.	.	.	.	.
.	.	.	.	16dd-\JJ)	.	.	.	.	.	.	.	.	.	.	.	.	.	.
=16	=16	=16	=16	=16	=16	=16	=16	=16	=16	=16	=16	=16	=16	=16	=16	=16	=16	=16
*	*	*	*	*	*	*	*	*	*	*	*	*	*^	*	*	*	*	*
4C/)	.	4C/)	.	(>8dd-\	bę-	bę-	8r	.	8r	.	8r	.	(<8dd-/	2re	.	2r	.	(>8ddd-\	.
.	.	.	.	4cc\)	.	.	4c\	.	(<4en/	.	(<4b-/	.	4cc/	.	.	.	.	4ccc\	.
4FF/	.	4FF/	.	.	.	.	.	.	.	.	.	.	.	.	.	.	.	.	.
.	.	.	.	8an/	-dąc	-dąc	8c\	.	8e-X/)	.	8an/)	.	8a/	.	.	.	.	8aan\	.
=17	=17	=17	=17	=17	=17	=17	=17	=17	=17	=17	=17	=17	=17	=17	=17	=17	=17	=17	=17
4D-\	.	4D-\	.	8f/	Z to-	z to-	8r	.	8r	.	8r	.	8f/)	4r	.	4r	.	4ff\	.
.	.	.	.	8ff\	-bą	-bą	4An/	.	4f/	.	4an/	.	8r	.	.	.	.	.	.
!	!	!	!	!	!	!	!	!	!	!	!	!	!LO:MO:mod=(>4ee- &(<4a\	!	!	!	!	!	!
4C/	.	4C/	.	8.ff\	roz-	roz-	.	.	.	.	.	.	(>4ee- &(<4a\	4ryy	.	[>4ff\	.	4aan\)	.
.	.	.	.	.	.	.	8e-\	.	8f/	.	8a/	.	.	.	.	.	.	.	.
.	.	.	.	16an/	-łą-	-łą-	.	.	.	.	.	.	.	.	.	.	.	.	.
!!LO:LB:g=original
=18	=18	=18	=18	=18	=18	=18	=18	=18	=18	=18	=18	=18	=18	=18	=18	=18	=18	=18	=18
4BB-/	.	4BB-/	.	(>16cc\LL	-czo-	-czo-	8r	.	8r	.	8r	.	8ee-/L)	8f\&)	.	8ff\]	.	(>8ccc\L	.
.	.	.	.	16b-\JJ)	.	.	.	.	.	.	.	.	.	.	.	.	.	.	.
!	!	!	!	!	!	!	!	!	!	!	!	!	!	!	!	!	!	!LO:SIC:s=[>8bb-\J	!
.	.	.	.	4b-\	-na.	-na.	4d-\	.	4f/	.	4b-\	.	[>8dd-/J	8r	.	8r	.	[>8bb-\J)	.
!	!	!	!	!	!	!	!	!	!	!	!	!	!	!	!	!	!	!LO:SIC:s=16bb-\LL])	!
4r	.	4r	.	.	.	.	.	.	.	.	.	.	16dd-/LL]	4r	.	4r	.	16bb-\LL]	.
!	!	!	!	!	!	!	!	!	!	!	!	!	!	!	!LO:MO:mod=!LO&colon;DY&colon;a	!	!	!	!
!	!	!	!	!	!	!	!	!	!	!	!	!	!	!	!LO:DY:a:rj	!	!	!	!
.	.	.	.	.	.	.	.	.	.	.	.	.	(>16a/	.	f	.	.	(>16aan\	<
.	.	.	.	8r	.	.	8r	.	8r	.	8r	.	16b-/	.	.	.	.	16bb-\	.
!	!	!	!	!	!	!	!	!	!	!	!	!	!	!	!LO:MO:null:mod=[[	!	!	!	!
.	.	.	.	.	.	.	.	.	.	.	.	.	16cc/JJ	.	.	.	.	16ccc\JJ	[[
=19	=19	=19	=19	=19	=19	=19	=19	=19	=19	=19	=19	=19	=19	=19	=19	=19	=19	=19	=19
!	!	!LO:TX:a:t=pizz:mod=pizz.	!	!	!	!	!	!	!	!	!	!	!	!	!	!	!	!	!
!	!LO:DY:b:rj	!	!LO:DY:b:rj	!	!	!	!	!	!	!	!	!LO:DY:b:rj	!	!	!LO:DY:b:rj	!	!LO:DY:b:rj	!	!LO:DY:b:rj
8G-\	f	8G-\L	f	2ryy	.	.	8r	.	8r	.	8ee-/L	f	4ee-/	(<16b-\LL	f	(>16bb-\LL	f	4eee-\	f
.	.	.	.	.	.	.	.	.	.	.	.	.	.	16cc\	.	16ccc\	.	.	.
!	!	!	!	!	!	!	!	!LO:DY:b:rj	!	!LO:DY:b:rj	!	!	!	!	!	!	!	!	!
8r	.	8B-\	.	.	.	.	8B-/	f	8c/	f	8e-/J	.	.	16b-\	.	16bb-\	.	.	.
.	.	.	.	.	.	.	.	.	.	.	.	.	.	16cc\JJ	.	16ccc\JJ	.	.	.
8F\	.	8F\	.	.	.	.	8r	.	8r	.	8ff/L	.	16dd/LL	8b-\)	.	8bb-\)	.	16dddn\LL	.
.	.	.	.	.	.	.	.	.	.	.	.	.	16ff/	.	.	.	.	16fff\	.
8r	.	8B-\J	.	.	.	.	8B-/	.	8dn/	.	8f/J	.	16dd/	8r	.	8r	.	16ddd\	.
.	.	.	.	.	.	.	.	.	.	.	.	.	16b-/JJ	.	.	.	.	16bb-\JJ	.
=20	=20	=20	=20	=20	=20	=20	=20	=20	=20	=20	=20	=20	=20	=20	=20	=20	=20	=20	=20
*	*	*	*	*	*	*	*rep	*	*	*	*	*	*	*	*	*	*	*	*
8E-\	.	8E-\L	.	2ryy	.	.	8r	.	8r	.	8gg-\L	.	8cc/L)	(<16g-\LL	.	(>16gg-\LL	.	8ccc\L)	.
.	.	.	.	.	.	.	.	.	.	.	.	.	.	16a-\	.	16aa-\	.	.	.
*	*	*	*	*	*	*	*	*	*rep	*	*	*	*	*	*	*	*	*	*
!	!	!	!	!	!	!	!	!	!	!	!	!	!LO:TUP:a	!	!	!	!	!	!
8r	.	8B-\	.	.	.	.	8B-/	.	8c/	.	8g-\J	.	(>24cc/L	16g-\	.	16gg-\	.	(24ccc\L	.
.	.	.	.	.	.	.	.	.	.	.	.	.	24b-/	.	.	.	.	24bb-\	.
.	.	.	.	.	.	.	.	.	.	.	.	.	.	16a-\JJ	.	16aa-\JJ	.	.	.
.	.	.	.	.	.	.	.	.	.	.	.	.	24cc/JJ	.	.	.	.	24ccc\JJ	.
8F\	.	8F\	.	.	.	.	8r	.	8r	.	8ff\L	.	8dd/L)	8b-\)	.	8bb-\)	.	8dddn\L)	.
8r	.	8B-\J	.	.	.	.	8B-/	.	8dn/	.	8f\J	.	8b-'>/J	8r	.	8r	.	8bb-'>\J	.
*	*	*	*	*	*	*	*Xrep	*	*Xrep	*	*	*	*	*	*	*	*	*	*
=21	=21	=21	=21	=21	=21	=21	=21	=21	=21	=21	=21	=21	=21	=21	=21	=21	=21	=21	=21
!	!	!	!	!	!	!	!	!	!	!	!	!	!	!LO:SIC:s=(16e-\LL	!	!	!	!	!
8C/	.	8C/	.	2ryy	.	.	8r	.	8r	.	8ff/L	.	(>8f/L	16e-\LL	.	(>16ee-\LL	.	(>8ff\L	.
.	.	.	.	.	.	.	.	.	.	.	.	.	.	16f\	.	16ff\	.	.	.
8r	.	8r	.	.	.	.	8An/	.	8e-/	.	8f/J	.	8ee-/J	16g\	.	16ggn\	.	8eee-\J	.
.	.	.	.	.	.	.	.	.	.	.	.	.	.	16a\JJ	.	16aan\JJ	.	.	.
!	!	!LO:TX:a:t=arco	!	!	!	!	!	!	!	!	!	!	!	!LO:SIC:s=8b-\L)	!	!	!	!	!
8BB-/	.	8BB-\L	.	.	.	.	8r	.	8r	.	8ff/L	.	16dd/LL	8b-\L	.	8bb-\L)	.	16dddn\LL	.
.	.	.	.	.	.	.	.	.	.	.	.	.	16ff/	.	.	.	.	16fff\	.
!	!	!	!	!	!	!	!	!	!	!	!	!	!	!LO:SIC:s=8f'\J	!	!	!	!	!
8r	.	8F\J	.	.	.	.	8B-/	.	8dn/	.	8f/J	.	16dd/	8f\J	.	8ff'>\J	.	16ddd\	.
.	.	.	.	.	.	.	.	.	.	.	.	.	16b-/JJ	.	.	.	.	16bb-\JJ	.
=22	=22	=22	=22	=22	=22	=22	=22	=22	=22	=22	=22	=22	=22	=22	=22	=22	=22	=22	=22
!	!	!	!	!	!	!	!	!	!	!	!	!	!	!	!	!LO:SIC:s=8aan\L	!	!	!
8F\L	.	8F\L	.	2ryy	.	.	8r	.	8r	.	8r	.	8cc/L)	8a\L	.	8aan^^>\L	.	8ccc\L)	.
!	!	!	!	!	!	!	!LO:SIC:s=8anL 8c 8F^^\	!	!	!	!	!	!LO:TUP:a	!LO:SIC:s=8f^^\J	!	!	!	!	!
8F^^>\J	.	8F^^>\J	.	.	.	.	8anL 8c 8F\	.	8ee-L 8f^^>\	.	8aanL 8cc 8f^^>\	.	(>24cc/L	8f\J	.	8aa^^>\J	.	(24ccc\L	.
.	.	.	.	.	.	.	.	.	.	.	.	.	24dd/	.	.	.	.	24dddn\	.
.	.	.	.	.	.	.	.	.	.	.	.	.	24cc/JJ	.	.	.	.	24ccc\JJ	.
!	!	!	!	!	!	!	!LO:SIC:s=8b-J 8dn 8F^^\	!	!	!	!	!	!	!LO:SIC:s=8b-^^/	!	!LO:SIC:s=8ff^^\	!	!	!
8BB-^^>/	.	8F 8BB-^^>\	.	.	.	.	8b-J 8dn 8F\	.	8ddnJ 8f^^>\	.	8bb-J 8ddn 8f^^>\	.	8ddnX\)	8b-/	.	8ff\	.	8bb-\)	.
8r	.	8r	.	.	.	.	8r	.	8r	.	8r	.	8r	8r	.	8r	.	8r	.
*	*	*	*	*	*	*	*	*	*	*	*	*	*v	*v	*	*	*	*	*
==:|!	==:|!	==:|!	==:|!	==:|!	==:|!	==:|!	==:|!	==:|!	==:|!	==:|!	==:|!	==:|!	==:|!	==:|!	==:|!	==:|!	==:|!	==:|!
*-	*-	*-	*-	*-	*-	*-	*-	*-	*-	*-	*-	*-	*-	*-	*-	*-	*-	*-
!!!system-decoration: {(s1,s2)}s3{(s4,s5)}s6,s7{(s8,s9)}
!!!system-decoration-mod: [(g1)][(g2)][(g3)][(g4)]
!!!RDF**kern: > = above
!!!RDF**kern: < = below
!!!RDF**kern: | = vertical stroke
!!!RDF**kern: N = linked
!!!RDF**kern: i = editorial accidental
!!!filter-modern: sic -sq | shed -e "s/LO:DY:(a|b|rj)/LO:dy:$1/L" | autostem -r | tie -s | shed -k -e "s/[<>]//g" | shed -k -e "s/:TUP:/:tup:/L" | shed -e "s/TX(.*):t=P:/tx$1:t=P:/LG" | shed -e "s/^(X?)rep$/$1REP/I" | shed -e "s/^(\d+[\/\\]right)/$1yy/I; s/^(\d+[\/\\]left)/$1yy/I" | modori -m
!!!ENC: Berenika Jozajtis
!!!END: 2021-05-31
!!!EED: Wojciech Jakubiak-Danek
!!!EEV: 2021-06-08
!!!ENC-modern: Katarzyna Serwa
!!!END-modern: 2022-08-21
